X:5
M:C
L:1/8
Q:1/4=110
K:F
c|d2 F>c A2 A>c|d2 F>c AGG>c|d2 F>c A2 Ac|d>ef>d cA A:|
~c|d>ef>d c<A a>g|f>c d/c/B/A/ AGG~c|d>ef>d c<A a>G|
f<d f>d c>AA~c|d>ef>d c<A a>g|f>c d/c/B/A/ AGG A/G/|

